dist/svg/static/voice-call-2-small.svg

<svg xmlns="http://www.w3.org/2000/svg" width="24" height="24" viewBox="0 0 24 24"><g fill="none" stroke="currentColor"><path stroke-miterlimit="10" d="M13 5.5c2.9 0 5.5 2.7 5.5 5.5"/><path d="M17.5 23.3l4-3.8c.2-.2.2-.8 0-1l-3-3c-.2-.2-.8-.2-1 0L16 16.8s-.7 1.1-4.9-3.1l-.5-.5C6.3 8.9 7.5 8.5 7.5 8.5l1-1c.2-.2.2-.8 0-1l-3-3c-.2-.2-.8-.2-1 0l-3.8 4s5.8 9.6 16.8 15.8z"/></g></svg>

<?xml version="1.0" encoding="UTF-8" standalone="no"?>
<svg width="24px" height="24px" viewBox="0 0 24 24" version="1.1" xmlns="http://www.w3.org/2000/svg" xmlns:xlink="http://www.w3.org/1999/xlink">
    <!-- Generator: sketchtool 46.2 (44496) - http://www.bohemiancoding.com/sketch -->
    <title>voice-call-2-small</title>
    <desc>Created with sketchtool.</desc>
    <defs></defs>
    <g id="icons-published" stroke="none" stroke-width="1" fill="none" fill-rule="evenodd">
        <g id="briefing" transform="translate(-3236.000000, -2330.000000)"></g>
        <g id="voice-call-2-small" stroke="#000000">
            <path d="M13,5.5 C15.9,5.5 18.5,8.2 18.5,11" id="Shape"></path>
            <path d="M17.5,23.3 L21.5,19.5 C21.7,19.3 21.7,18.7 21.5,18.5 L18.5,15.5 C18.3,15.3 17.7,15.3 17.5,15.5 L16,16.8 C16,16.8 15.3,17.9 11.1,13.7 L10.6,13.2 C6.3,8.9 7.5,8.5 7.5,8.5 L8.5,7.5 C8.7,7.3 8.7,6.7 8.5,6.5 L5.5,3.5 C5.3,3.3 4.7,3.3 4.5,3.5 L0.7,7.5 C0.7,7.5 6.5,17.1 17.5,23.3 Z" id="Shape"></path>
        </g>
    </g>
</svg>
